icons/svg/keyboard-tab.svg

﻿<?xml version="1.0" encoding="utf-8"?>
<!DOCTYPE svg PUBLIC "-//W3C//DTD SVG 1.1//EN" "http://www.w3.org/Graphics/SVG/1.1/DTD/svg11.dtd">
<svg xmlns="http://www.w3.org/2000/svg" xmlns:xlink="http://www.w3.org/1999/xlink" version="1.1" baseProfile="full" width="24" height="24" viewBox="0 0 24.00 24.00" enable-background="new 0 0 24.00 24.00" xml:space="preserve">
	<path fill="#000000" fill-opacity="1" stroke-width="0.2" stroke-linejoin="round" d="M 19.9994,17.9981L 21.9994,17.9981L 21.9994,5.99807L 19.9994,5.99807M 11.5854,7.41207L 15.1714,10.9981L 0.9994,10.9981L 0.9994,12.9981L 15.1714,12.9981L 11.5854,16.5841L 12.9994,17.9981L 18.9994,11.9981L 12.9994,5.99807L 11.5854,7.41207 Z "/>
</svg>

<svg xmlns="http://www.w3.org/2000/svg" version="1.1" baseProfile="full" width="24" height="24" viewBox="0 0 24.00 24.00" xml:space="preserve"><path fill="#000" fill-opacity="1" stroke-width=".2" stroke-linejoin="round" d="M20 17.998h2v-12h-2m-8.415 1.414l3.586 3.586H1v2h14.17l-3.585 3.586L13 17.998l6-6-6-6-1.415 1.414z"/></svg>
